X: 1
T: Shalom Aleichem   [Am]
C: words: prayer book
C: tune: trad Ashkenazi
D: Andy Statman & David Grisman "Songs of our Fathers"
B: Harvard Hillel Sabbath Songbook
Z: John Chambers <jc:trillian.mit.edu>
M: C
L: a/8
K: Am
[|"Am"E2 cB A2 AA | "E7"^GA BA (GF E2) | ^GG G2 "Am"(AG Ac) | "E7"B4 z4 |
w: Sha-lom a-le-chem mal'\-a che_ ha-sha-ret__ mal'-a-che el___ yon.
| "Am"(E2 cB) A2 AA | "E7"(^GA) BA (GF E2) | "Dm"DD A2 ^G2 (F{E}D) | "E7"E4 z4 |
w: Mi*-me-lech mal-che_ ham'-la-chim__ ha-ka-dosh ba-ruch_ hu.
| "C"cd ee e2 e2 | "G7"dc Bc "E7"(de) d2 | "Am"cB (AB) (c2 e2) | "E7"B4 z4 |
w: Bo'-a-chem l'-sha-lom mal'-a-che ha-sha-*lom mal'-a-che_ el-*yon
| "Dm"(B2 d2) d2 dd | "E7"df ed "Am"(cB A2) | AB c2 "E7"(BA) (^GB) | "Am"A4 z4 |]
w: Mi-*me-lech mal-che* ham'-la-chim__ ha-ka-dosh ba-*ruch* hu.
